X: 41
T: Missa N'as tu pas &mdash; Gloria
C: Gaspar van Weerbeke
%%abc-version 2.0
%%abcx-abcm2ps-target-version 5.9.1 (29 Sep 2008)
%%abc-creator hum2abc beta
%%abcx-conversion-date 2022/03/06 13:05:59
%%abc-copyright Copyright 2016, Kolb, Paul
%%abc-edited-by Zybina, Karina
%%humdrum-veritas 4179194288
%%humdrum-veritas-data 665923297
%%linebreak <none>
%%barnumbers 0
L: 1/4
M: 2/2
N: Derived from Gas0203b-Missa_Nas_tu_pas-Gloria.krn
%%staves [1 2 3 4]
V: 1 clef=treble
V: 2 clef=treble-8
V: 3 clef=treble-8
V: 4 clef=bass
K: F
[V:1] F2FA- | 
[V:2] c2cf- | 
[V:3] F2FF- | 
[V:4] F,2F,D,- | 
[V:1] ABc3/B/ | 
[V:2] fdc2 | 
[V:3] FGA2- | 
[V:4] D,B,,A,,2- | 
[V:1] Accc | 
[V:2] zcff | 
[V:3] AAAA | 
[V:4] A,,F,F,F, | 
[V:1] B2A2 | 
[V:2] d>ef2- | 
[V:3] B2c2 | 
[V:4] G,2F,2 | 
[V:1] A2AA | 
[V:2] f2ff | 
[V:3] d>cA3/B/ | 
[V:4] D,2F,F, | 
[V:1] G>A B/c/d- | 
[V:2] e>cdf | 
[V:3] c2z2 | 
[V:4] C,2B,,2 | 
[V:1] dc2=B | 
[V:2] ecd2 | 
[V:3] G>ABG | 
[V:4] C,2G,2 | 
[V:1] c2zc | 
[V:2] c3c | 
[V:3] G3A | 
[V:4] C,3F, | 
[V:1] ccc3/B/ | 
[V:2] ccf3/e/ | 
[V:3] AAA2- | 
[V:4] F,F,F,2- | 
[V:1] Accc | 
[V:2] cfff- | 
[V:3] AAAA- | 
[V:4] F,F,F,F,- | 
[V:1] c2BA | 
[V:2] fc/d/ef | 
[V:3] AABc | 
[V:4] F,F,G,F, | 
[V:1] FGAG | 
[V:2] z4 | 
[V:3] z4 | 
[V:4] zC,C,C, | 
[V:1] E2z2 | 
[V:2] zccc | 
[V:3] z4 | 
[V:4] C,>B,,A,,2 | 
[V:1] z4 | 
[V:2] A>GEA- | 
[V:3] z4 | 
[V:4] C,C,C,C,- | 
[V:1] z4 | 
[V:2] AGA2 | 
[V:3] z4 | 
[V:4] C,/A,,/B,,A,,2 | 
[V:1] z4 | 
[V:2] A>AAA | 
[V:3] c>ccc | 
[V:4] F,>F,F,F, | 
[V:1] z4 | 
[V:2] GAGE | 
[V:3] cccc | 
[V:4] E,F,E,C, | 
[V:1] A>GAG | 
[V:2] A>B c/d/e | 
[V:3] c2Ac | 
[V:4] F,>F,F,E, | 
[V:1] AGEc- | 
[V:2] Aeee- | 
[V:3] cc>cc | 
[V:4] F,E,C,2 | 
[V:1] c/=B/A2^G | 
[V:2] e/e/ee2 | 
[V:3] c2=B2 | 
[V:4] A,,2E,2 | 
[V:1] A2zc- | 
[V:2] c2f3/f/ | 
[V:3] Ac>BA | 
[V:4] F,2F,3/F,/ | 
[V:1] c/c/Ac2 | 
[V:2] cf2c- | 
[V:3] c2A2 | 
[V:4] F,F,2F, | 
[V:1] Acc/B/A/G/ | 
[V:2] c/B/A2f- | 
[V:3] c2Ac- | 
[V:4] F,2F,F,- | 
[V:1] AG2^F | 
[V:2] f/e/d2d | 
[V:3] cBA2 | 
[V:4] F,G,D,2 | 
[V:1] G2BA | 
[V:2] B2Bc | 
[V:3] G2GA | 
[V:4] G,,2z2 | 
[V:1] GBAG | 
[V:2] dBcd | 
[V:3] BGAB | 
[V:4] z4 | 
[V:1] BA2G/F/ | 
[V:2] B_e>dc- | 
[V:3] Gc2B/A/ | 
[V:4] z2C,2 | 
[V:1] E/D/F2E | 
[V:2] cBc2 | 
[V:3] GFG2 | 
[V:4] C,D,C,2 | 
[V:1] F3A- | 
[V:2] A2z2 | 
[V:3] F3c- | 
[V:4] D,2z2 | 
[V:1] A/A/AGA | 
[V:2] z4 | 
[V:3] c/c/cBA | 
[V:4] z4 | 
[V:1] z4 | 
[V:2] AAA2 | 
[V:3] z4 | 
[V:4] C,C,C,2 | 
[V:1] z2A2 | 
[V:2] GAc2 | 
[V:3] z2A2 | 
[V:4] B,,A,,F,2 | 
[V:1] G2F2 | 
[V:2] e2d2 | 
[V:3] c2A2 | 
[V:4] C,2D,2 | 
[V:1] E4 | 
[V:2] c4 | 
[V:3] A4 | 
[V:4] A,,4 | 
[V:1] z4 | 
[V:2] z4 | 
[V:3] G2BA- | 
[V:4] zC,B,,C, | 
[V:1] z4 | 
[V:2] z4 | 
[V:3] Ac2=B | 
[V:4] E,>F,D,2 | 
[V:1] G2BG- | 
[V:2] zcBc | 
[V:3] c2z2 | 
[V:4] C,2z2 | 
[V:1] Gc2=B | 
[V:2] e>fd2 | 
[V:3] z4 | 
[V:4] z4 | 
[V:1] c2z2 | 
[V:2] zcc3/B/ | 
[V:3] z4 | 
[V:4] C,>D,E,F,- | 
[V:1] zccB/A/ | 
[V:2] A3/G//F//E2 | 
[V:3] z2zc | 
[V:4] F,/E,/F,C,2 | 
[V:1] AG/F/EA | 
[V:2] z2c3/d/ | 
[V:3] c>BA3/G/ | 
[V:4] z4 | 
[V:1] GcBA- | 
[V:2] e>fge- | 
[V:3] EAGc- | 
[V:4] C,2z2 | 
[V:1] A/G/FEF- | 
[V:2] e/d/cBc | 
[V:3] c/B/AGF | 
[V:4] C,2z2 | 
[V:1] FEF3/G/ | 
[V:2] zcA3/=B/ | 
[V:3] G2F2 | 
[V:4] C,2D,2 | 
[V:1] E4 ||  
[V:2] c4 ||  
[V:3] G4 ||  
[V:4] C,4 ||  
[V:1] [M:2/2]z4 | 
[V:2] [M:2/2]z4 | 
[V:3] [M:2/2]z4 | 
[V:4] [M:2/2]F,,2F,,F,, | 
[V:1] z4 | 
[V:2] F2FF | 
[V:3] z4 | 
[V:4] F,,A,,2B,,- | 
[V:1] z4 | 
[V:2] FA2B | 
[V:3] z4 | 
[V:4] B,,C,D,2 | 
[V:1] z4 | 
[V:2] c/>B/A/G/A2 | 
[V:3] z4 | 
[V:4] C,2F,2 | 
[V:1] z4 | 
[V:2] cccc | 
[V:3] z4 | 
[V:4] E,F,C,E, | 
[V:1] z4 | 
[V:2] BA2G | 
[V:3] z4 | 
[V:4] D,C,B,,2 | 
[V:1] z4 | 
[V:2] A4 | 
[V:3] C2CC | 
[V:4] A,,2A,,2- | 
[V:1] C2CC | 
[V:2] z4 | 
[V:3] CE2F- | 
[V:4] A,,A,,C,/B,,/A,,/G,,/ | 
[V:1] CE2F | 
[V:2] z4 | 
[V:3] FGA2 | 
[V:4] F,,C,2D, | 
[V:1] G/>F/E/D/E2 | 
[V:2] z4 | 
[V:3] G2c2 | 
[V:4] G,,2z2 | 
[V:1] E2EE | 
[V:2] z4 | 
[V:3] cccc | 
[V:4] z4 | 
[V:1] D>E F/G/A- | 
[V:2] z4 | 
[V:3] BBAF- | 
[V:4] z4 | 
[V:1] AG2^F | 
[V:2] AAAA | 
[V:3] F/E/CD2 | 
[V:4] z4 | 
[V:1] G>F D/C/F | 
[V:2] G>A B/c/d- | 
[V:3] z4 | 
[V:4] z4 | 
[V:1] ECD2 | 
[V:2] dc2=B | 
[V:3] z4 | 
[V:4] z4 | 
[V:1] C2z2 | 
[V:2] cCEF | 
[V:3] z4 | 
[V:4] A,,2A,,A,, | 
[V:1] z4 | 
[V:2] EG2F | 
[V:3] z4 | 
[V:4] G,,>A,, B,,/C,/D,- | 
[V:1] z4 | 
[V:2] ECD2 | 
[V:3] z4 | 
[V:4] D,C,2=B,, | 
[V:1] z4 | 
[V:2] C2z2 | 
[V:3] zccc | 
[V:4] C,2E,F, | 
[V:1] z4 | 
[V:2] z4 | 
[V:3] c>BAc | 
[V:4] E,F,2E,/D,/ | 
[V:1] z4 | 
[V:2] z4 | 
[V:3] ccBA | 
[V:4] C,F,G,F, | 
[V:1] c>ccc | 
[V:2] A>A A/B/c/d/ | 
[V:3] z4 | 
[V:4] z4 | 
[V:1] c/B/A/G/ F/E/c | 
[V:2] ef/e/ d/c/e | 
[V:3] z4 | 
[V:4] z4 | 
[V:1] BA2G | 
[V:2] dcB2 | 
[V:3] z4 | 
[V:4] z4 | 
[V:1] (3:2:1A2z2 | 
[V:2] (3:2:1A2z2 | 
[V:3] z2(3A A A | 
[V:4] z2(3F, F, F, | 
[V:1] z4 | 
[V:2] z4 | 
[V:3] (3:2:5A2BA2G/F/ | 
[V:4] (3F,2D,2D,2 | 
[V:1] z4 | 
[V:2] z4 | 
[V:3] (3:2:5E>F GF2E | 
[V:4] (3C,2>A,,2G,,2 | 
[V:1] z2(3:2:2A2B | 
[V:2] (3:2:5A2B A F G | 
[V:3] (3:2:2F2zz2 | 
[V:4] (3:2:2F,,2zz2 | 
[V:1] (3A2G/F<(3EF/ G | 
[V:2] (3:2:5F>GA/B/c2 | 
[V:3] z4 | 
[V:4] z4 | 
[V:1] (3:2:4F2EF2z | 
[V:2] (3:2:4AG2F2z | 
[V:3] z2(3z z F | 
[V:4] z2(3z z F, | 
[V:1] z4 | 
[V:2] z4 | 
[V:3] (3:2:6A2Bc>BA/G/ | 
[V:4] (3:2:5D,2B,,A,,>B,, C, | 
[V:1] (3:2:5z z FA2B | 
[V:2] (3:2:5z z fd2B | 
[V:3] (3:2:2A2zz2 | 
[V:4] (3:2:2F,,2zz2 | 
[V:1] (3:2:6c>BA/G/A2c | 
[V:2] (3:2:5A>B cF2f | 
[V:3] z2(3z z A | 
[V:4] z2(3z z F, | 
[V:1] (3:2:4c2cB2A | 
[V:2] (3:2:5f2cd>e f | 
[V:3] (3:2:4A2AB2c | 
[V:4] (3:2:4F,2A,G,2F, | 
[V:1] A2AA | 
[V:2] f2ff | 
[V:3] c2cc | 
[V:4] F,2F,F, | 
[V:1] G/A/B/c/dc- | 
[V:2] d>e d/e/f | 
[V:3] B3c | 
[V:4] G,3A, | 
[V:1] c=Bc2 | 
[V:2] g2e2 | 
[V:3] d2cc | 
[V:4] G,2A,2 | 
[V:1] zcc3/c/ | 
[V:2] f>ff3/d/ | 
[V:3] c>BA2 | 
[V:4] F,>F,F,2 | 
[V:1] AcBA- | 
[V:2] e2z2 | 
[V:3] c2dA | 
[V:4] zA,G,F, | 
[V:1] AGA2 | 
[V:2] ddd2 | 
[V:3] B2A2 | 
[V:4] G,2D,2 | 
[V:1] BAG3/B/ | 
[V:2] d/>e/fgd/e/ | 
[V:3] GABz/ G/ | 
[V:4] G,,D,G,,z/ G,/ | 
[V:1] AGz/ B/A | 
[V:2] fdz/ g/f | 
[V:3] ABGz/ A/ | 
[V:4] F,G,G,,D, | 
[V:1] Gz/ B/ A/G/B/A/ | 
[V:2] gd/>e/ f/g/d | 
[V:3] BGcB | 
[V:4] G,,z/ G,/ F,/E,/G, | 
[V:1] G/F/E/D/C2 | 
[V:2] ec>BA | 
[V:3] zGA/>B/c | 
[V:4] C,>B,, A,,/G,,/F,, | 
[V:1] B/A/B/A/ B/A/G/F/ | 
[V:2] Gzde | 
[V:3] zdBc | 
[V:4] G,,G,/F,/G,C,- | 
[V:1] E/D/G2F- | 
[V:2] cdAc- | 
[V:3] GBcA | 
[V:4] C,/B,,/G,,A,,F,, | 
[V:1] FEF2 |]  
[V:2] c2c2 |]  
[V:3] G2F2 |]  
[V:4] C,2F,,2 |]  


